icons/1_Primary/Nexus Mods.svg

<svg width="1024" height="1024" fill="none" xmlns="http://www.w3.org/2000/svg"><g clip-path="url(#a)"><path d="M512 1024c282.77 0 512-229.23 512-512S794.77 0 512 0 0 229.23 0 512s229.23 512 512 512Z" fill="#F8C18C"/><path d="M765.2 609.1c-3.1-10.1-7.6-19.8-12.9-29.3-3.1-5.7-6.9-11.3-11-17.3 6.9-30.8 7.6-62.9 1.9-94.1-2.8-14.8-6.9-29.3-12.6-43.4 2.8-7.6 5.3-15.1 7.6-22.7 2.8-10.1 4.4-21.1 5-32.7.3-5.4.3-10.7 0-15.7-.3-14.5-4.7-24.9-10.4-32.1-1.6-2.5-3.8-4.7-6-6.6l-4.4-4.4c-5.3-5-11-10.1-16.7-14.8-12.9-10.7-25.2-19.2-37.1-26.1-5.4-3.1-12.9-7.2-21.7-10.1-5-1.6-9.4-2.5-14.2-3.1-1.9-.3-4.1-.3-6-.3-9.1 0-16.1 2.2-19.2 3.5h-.3c-14.2 4.4-27.7 11.6-42.5 21.7-4.4-.9-8.8-1.9-13.2-2.5-18.6-3.1-38.1-4.1-57.3-2.5-18.3 1.3-36.5 5-53.5 10.7-7.2 2.5-14.2 5-20.8 7.9-10.1-3.8-21.4-7.2-34-9.1-8.2-1.3-16.7-1.9-24.5-1.9h-.3c-4.1 0-8.2.3-12 .6-12 .3-20.8 4.4-27.1 9.1-2.8 1.9-5.3 4.1-7.6 6.6l-4.4 4.4c-5 5-9.8 10.7-14.5 16.4-10.4 12.9-18.9 24.9-25.8 36.8-3.1 5.4-7.2 12.6-10.1 21.4-1.6 4.7-2.5 9.1-3.1 13.5-1.9 12 1.3 21.4 2.5 25.2v.3c6 18.3 15.4 34 23 45-.9 3.8-1.6 7.9-2.2 12-2.8 19.2-3.5 38.7-1.6 57.9 1.9 18.3 5.7 36.5 11.3 52.9 1.3 3.1 2.2 6.3 3.5 9.1-.3.9-.6 1.9-.9 2.8-4.1 11-9.4 25.5-11.6 41.9-1.3 7.9-1.6 16.1-1.6 23.6 0 3.8.3 7.2.6 10.7.3 10.7 3.8 18.9 7.9 25.2 2.2 3.5 5 6.6 8.2 9.4l4.4 4.4c5.3 5 11 10.1 16.7 14.8 12.9 10.7 25.2 19.2 37.1 26.1 5.3 3.1 12.9 7.2 21.7 10.1 5 1.6 9.4 2.5 14.2 3.1 1.9.3 4.1.3 6 .3 9.1 0 16.1-2.5 19.2-2.2h.3c15.1-5 29.6-12.6 45.9-24.2 2.2.3 4.7.9 6.9 1.3 18.9 3.5 38.4 5 57.6 3.8 18.6-.9 37.1-4.4 54.8-9.8 6-1.9 12.3-4.1 18.3-6.6 11.3 4.4 23.9 8.8 38.1 11 8.8 1.6 17.3 2.2 25.8 2.2h.3c4.1 0 8.2-.3 12-.6 12-.6 20.8-4.4 27.1-9.1 2.8-2.2 5.4-4.4 7.6-6.9l3.8-3.8c10.1-10.7 19.8-22.3 28.3-34.3 7.9-11 16.7-24.2 22.3-40.3 1.6-4.7 2.8-8.8 3.5-13.2 1.8-12.8-1.1-22.2-2.3-26Zm-72.9-35.9c-13.4-13.8-36.2-30.8-79-49.5l11.6-22-89.1 23.9L568 608l12.9-24.5c11 5 19.2 10.1 27.4 16.1 12.6 8.8 24.2 18.6 34 29 23.8 24.1 36.3 48.8 33.1 69.2l-.4.2-1.6.3c-11 1.3-23 .6-35.2-2.2h-.3c-13.2-3.5-26.3-8.4-39.5-14.5-25.9 13.2-55.3 20.8-86.4 20.8-21.4 0-41.9-3.6-61.1-10.1 13.5-13.6 29.9-36.3 47.9-77.4l22 11.6-23.9-89.1-82.8 31.6 24.9 13.5c-5 11-10.1 19.2-16.1 27.4-8.8 12.6-18.6 24.2-29 34-24.1 23.8-48.8 36.3-69.2 33.1l-.4-.4-.3-1.6c-1.3-11-.6-23 2.2-35.2v-.3c3.7-14 9-27.9 15.6-41.9-13-25.7-20.3-54.8-20.3-85.6 0-19.9 3.1-39.1 8.8-57.1 13.3 13.9 36.2 31.2 79.7 50.2l-11.6 22 89.1-23.9-31.8-83.4-13.3 25.2c-11-5-19.2-10.1-27.4-16.1-12.6-8.8-24.2-18.6-34-29-23.6-24-36.2-48.5-33.1-68.8l.7-.7 1.6-.3c11-1.3 23-.6 35.2 2.2h.3c11.7 3.1 23.4 7.3 35.1 12.5C448 330 479 321.6 512 321.6c21.7 0 42.5 3.7 61.9 10.3-14 13.2-31.4 36.1-50.6 80l-22-11.6 23.9 89.1 83.1-31.5-25.2-13.5c5-11 10.1-19.2 16.1-27.4 8.8-12.6 18.6-24.2 29-34 24.1-23.8 48.8-36.3 69.2-33.1l.4.4.3 1.6c1.3 11 .6 23-2.2 35.2v.3c-3.4 12.8-8.2 25.7-14 38.5 13.2 25.9 20.6 55.1 20.6 86.2-.1 21.3-3.7 41.9-10.2 61.1Z" fill="#fff"/></g><defs><clipPath id="a"><path fill="#fff" d="M0 0h1024v1024H0z"/></clipPath></defs></svg>

<svg width="1024" height="1024" viewBox="0 0 1024 1024" fill="none" xmlns="http://www.w3.org/2000/svg">
<g clip-path="url(#clip0_2_2928)">
<path d="M512 1024C794.77 1024 1024 794.77 1024 512C1024 229.23 794.77 0 512 0C229.23 0 0 229.23 0 512C0 794.77 229.23 1024 512 1024Z" fill="#F8C18C"/>
<path d="M765.2 609.1C762.1 599 757.6 589.3 752.3 579.8C749.2 574.1 745.4 568.5 741.3 562.5C748.2 531.7 748.9 499.6 743.2 468.4C740.4 453.6 736.3 439.1 730.6 425C733.4 417.4 735.9 409.9 738.2 402.3C741 392.2 742.6 381.2 743.2 369.6C743.5 364.2 743.5 358.9 743.2 353.9C742.9 339.4 738.5 329 732.8 321.8C731.2 319.3 729 317.1 726.8 315.2L722.4 310.8C717.1 305.8 711.4 300.7 705.7 296C692.8 285.3 680.5 276.8 668.6 269.9C663.2 266.8 655.7 262.7 646.9 259.8C641.9 258.2 637.5 257.3 632.7 256.7C630.8 256.4 628.6 256.4 626.7 256.4C617.6 256.4 610.6 258.6 607.5 259.9H607.2C593 264.3 579.5 271.5 564.7 281.6C560.3 280.7 555.9 279.7 551.5 279.1C532.9 276 513.4 275 494.2 276.6C475.9 277.9 457.7 281.6 440.7 287.3C433.5 289.8 426.5 292.3 419.9 295.2C409.8 291.4 398.5 288 385.9 286.1C377.7 284.8 369.2 284.2 361.4 284.2H361.1C357 284.2 352.9 284.5 349.1 284.8C337.1 285.1 328.3 289.2 322 293.9C319.2 295.8 316.7 298 314.4 300.5L310 304.9C305 309.9 300.2 315.6 295.5 321.3C285.1 334.2 276.6 346.2 269.7 358.1C266.6 363.5 262.5 370.7 259.6 379.5C258 384.2 257.1 388.6 256.5 393C254.6 405 257.8 414.4 259 418.2V418.5C265 436.8 274.4 452.5 282 463.5C281.1 467.3 280.4 471.4 279.8 475.5C277 494.7 276.3 514.2 278.2 533.4C280.1 551.7 283.9 569.9 289.5 586.3C290.8 589.4 291.7 592.6 293 595.4C292.7 596.3 292.4 597.3 292.1 598.2C288 609.2 282.7 623.7 280.5 640.1C279.2 648 278.9 656.2 278.9 663.7C278.9 667.5 279.2 670.9 279.5 674.4C279.8 685.1 283.3 693.3 287.4 699.6C289.6 703.1 292.4 706.2 295.6 709L300 713.4C305.3 718.4 311 723.5 316.7 728.2C329.6 738.9 341.9 747.4 353.8 754.3C359.1 757.4 366.7 761.5 375.5 764.4C380.5 766 384.9 766.9 389.7 767.5C391.6 767.8 393.8 767.8 395.7 767.8C404.8 767.8 411.8 765.3 414.9 765.6H415.2C430.3 760.6 444.8 753 461.1 741.4C463.3 741.7 465.8 742.3 468 742.7C486.9 746.2 506.4 747.7 525.6 746.5C544.2 745.6 562.7 742.1 580.4 736.7C586.4 734.8 592.7 732.6 598.7 730.1C610 734.5 622.6 738.9 636.8 741.1C645.6 742.7 654.1 743.3 662.6 743.3H662.9C667 743.3 671.1 743 674.9 742.7C686.9 742.1 695.7 738.3 702 733.6C704.8 731.4 707.4 729.2 709.6 726.7L713.4 722.9C723.5 712.2 733.2 700.6 741.7 688.6C749.6 677.6 758.4 664.4 764 648.3C765.6 643.6 766.8 639.5 767.5 635.1C769.3 622.3 766.4 612.9 765.2 609.1ZM692.3 573.2C678.9 559.4 656.1 542.4 613.3 523.7L624.9 501.7L535.8 525.6L568 608L580.9 583.5C591.9 588.5 600.1 593.6 608.3 599.6C620.9 608.4 632.5 618.2 642.3 628.6C666.1 652.7 678.6 677.4 675.4 697.8L675 698L673.4 698.3C662.4 699.6 650.4 698.9 638.2 696.1H637.9C624.7 692.6 611.6 687.7 598.4 681.6C572.5 694.8 543.1 702.4 512 702.4C490.6 702.4 470.1 698.8 450.9 692.3C464.4 678.7 480.8 656 498.8 614.9L520.8 626.5L496.9 537.4L414.1 569L439 582.5C434 593.5 428.9 601.7 422.9 609.9C414.1 622.5 404.3 634.1 393.9 643.9C369.8 667.7 345.1 680.2 324.7 677L324.3 676.6L324 675C322.7 664 323.4 652 326.2 639.8V639.5C329.9 625.5 335.2 611.6 341.8 597.6C328.8 571.9 321.5 542.8 321.5 512C321.5 492.1 324.6 472.9 330.3 454.9C343.6 468.8 366.5 486.1 410 505.1L398.4 527.1L487.5 503.2L455.7 419.8L442.4 445C431.4 440 423.2 434.9 415 428.9C402.4 420.1 390.8 410.3 381 399.9C357.4 375.9 344.8 351.4 347.9 331.1L348.6 330.4L350.2 330.1C361.2 328.8 373.2 329.5 385.4 332.3H385.7C397.4 335.4 409.1 339.6 420.8 344.8C448 330 479 321.6 512 321.6C533.7 321.6 554.5 325.3 573.9 331.9C559.9 345.1 542.5 368 523.3 411.9L501.3 400.3L525.2 489.4L608.3 457.9L583.1 444.4C588.1 433.4 593.2 425.2 599.2 417C608 404.4 617.8 392.8 628.2 383C652.3 359.2 677 346.7 697.4 349.9L697.8 350.3L698.1 351.9C699.4 362.9 698.7 374.9 695.9 387.1V387.4C692.5 400.2 687.7 413.1 681.9 425.9C695.1 451.8 702.5 481 702.5 512.1C702.4 533.4 698.8 554 692.3 573.2Z" fill="white"/>
</g>
<defs>
<clipPath id="clip0_2_2928">
<rect width="1024" height="1024" fill="white"/>
</clipPath>
</defs>
</svg>
